mwebring.svg

<svg fill="none" height="960" width="1740" xmlns="http://www.w3.org/2000/svg"><path d="m780 420a120 120 0 0 0 120-120 120 120 0 0 0 120 120m-120 45v-210a105 75 0 0 0 -105 75h210a105 315 0 0 0 -105 315m60-225a120 120 0 0 1 -120-120 120 120 0 0 1 -120 120m120 45v-210a105 75 0 0 1 105 75h-210a105 315 0 0 1 105 315" fill="none" stroke="#fff" stroke-linecap="square" stroke-width="59"/></svg>

<svg xmlns="http://www.w3.org/2000/svg" baseProfile="full" version="1.1" width="1740px" height="960px" style="fill: none; width: 1740px; height: 960px;"><path d="" style="stroke-width: 15; stroke-linecap: round; stroke-linejoin: round; stroke: rgb(106, 106, 106); fill: none;"/><path d="" style="stroke-width: 15; stroke-linecap: round; stroke-linejoin: round; stroke: rgb(74, 74, 74); fill: none;"/><path d="M780,420 A120,120 0 0,0 900,300 A120,120 0 0,0 1020,420 M900,465 L900,255 A105,75 0 0,0 795,330 L1005,330 A105,315 0 0,0 900,645 M960,420 A120,120 0 0,1 840,300 A120,120 0 0,1 720,420 M840,465 L840,255 A105,75 0 0,1 945,330 L735,330 A105,315 0 0,1 840,645 " style="stroke-width: 59; stroke-linecap: square; stroke-linejoin: miter; stroke: rgb(255, 255, 255); fill: none;"/></svg>
